public/images/partners/Dell.svg

<svg width="181" height="32" viewBox="0 0 181 32" fill="none" xmlns="http://www.w3.org/2000/svg">
<g id="dell-emc-logo 1" clip-path="url(#clip0_20314_1143)">
<path id="Vector" d="M41.3957 0.426392L25.6207 12.5664C23.9982 6.49639 18.7407 2.04139 12.2682 2.04139H0.940674V29.9589H12.2682C18.7432 29.9589 24.4057 25.5089 25.6182 19.4389L41.3932 31.5739L57.1757 19.4389V29.9564H74.9757V24.2939H63.2457V2.04389H56.7707V12.5614L41.8007 24.7014L38.5632 21.8764L45.8482 16.2064L53.5332 10.1414L49.0832 6.50389L34.1157 18.2339L30.8782 15.4014L45.8482 4.07389L41.3957 0.433892V0.426392ZM7.01067 7.70639H11.8632C12.8757 7.70639 13.8632 7.93389 14.7732 8.35139C15.6857 8.76889 16.5182 9.37639 17.2257 10.1339C17.9332 10.8914 18.5157 11.7989 18.9207 12.8239C19.3257 13.8489 19.5507 14.9889 19.5507 16.2039C19.5507 17.3164 19.3457 18.4014 18.9757 19.4039C18.6103 20.3987 18.0683 21.3193 17.3757 22.1214C16.6992 22.9047 15.8708 23.5425 14.9407 23.9964C14.0107 24.4464 12.9782 24.6939 11.8657 24.6939H7.00817L7.01067 7.70639ZM95.2032 24.2939V29.9589H77.4032V2.04389H83.8757V24.2939H95.2032Z" fill="#007DB8"/>
<path id="Vector_2" d="M170.158 30.4713C175.633 30.4713 180.083 27.7338 180.941 21.7438L180.598 21.4013H179.058L178.716 21.7438C177.858 26.0213 175.121 28.4188 170.331 28.4188C164.341 28.4188 160.061 23.9688 160.061 16.0938C160.061 8.21881 164.511 3.77381 170.328 3.77381C175.121 3.77381 177.861 6.17131 178.716 10.1063L179.058 10.4488H180.598L180.941 10.1063C180.086 4.63131 175.806 1.72131 170.158 1.72131C163.483 1.72131 157.493 6.51381 157.493 15.9263C157.493 25.6813 163.483 30.4713 170.158 30.4713ZM152.703 29.6163V2.57631L152.361 2.23381H149.621L149.281 2.57631L139.011 26.7063H138.668L128.058 2.57631L127.716 2.23381H124.978L124.636 2.57631V29.6163L124.978 29.9588H126.518L126.861 29.6163V6.68381H127.203L137.128 29.6163L137.471 29.9588H139.526L139.868 29.6163L149.793 6.68381H150.306V29.6163L150.648 29.9588H152.188L152.703 29.6163ZM119.333 29.6163V28.4163L118.991 28.0763H104.273L103.931 27.7338V17.4663L104.273 17.1238H118.133L118.476 16.7813V15.4113L118.133 15.0688H104.273L103.931 14.7263V4.62881L104.273 4.28881H118.991L119.333 3.94631V2.57631L118.991 2.23381H101.876L101.533 2.57631V29.6163L101.876 29.9588H118.991L119.333 29.6163Z" fill="#808080"/>
</g>
<defs>
<clipPath id="clip0_20314_1143">
<rect width="180" height="31.176" fill="white" transform="translate(0.940674 0.412109)"/>
</clipPath>
</defs>
</svg>

<svg xmlns="http://www.w3.org/2000/svg" width="181" height="32" fill="none"><g clip-path="url(#a)"><path fill="#007DB8" d="M41.396.426 25.62 12.566c-1.623-6.07-6.88-10.525-13.353-10.525H.941V29.96h11.327c6.475 0 12.138-4.45 13.35-10.52l15.775 12.135L57.176 19.44v10.517h17.8v-5.662h-11.73V2.044H56.77V12.56L41.8 24.701l-3.238-2.825 7.285-5.67 7.685-6.065-4.45-3.637-14.967 11.73-3.238-2.833 14.97-11.327-4.452-3.64zM7.01 7.706h4.852c1.013 0 2 .228 2.91.645a7.8 7.8 0 0 1 2.453 1.783 8.5 8.5 0 0 1 1.695 2.69 9.2 9.2 0 0 1 .63 3.38 9.3 9.3 0 0 1-.575 3.2 8.8 8.8 0 0 1-1.6 2.717 7.65 7.65 0 0 1-2.435 1.875c-.93.45-1.963.698-3.075.698H7.008zm88.192 16.588v5.665h-17.8V2.044h6.473v22.25z"/><path fill="gray" d="M170.158 30.471c5.475 0 9.925-2.737 10.783-8.727l-.343-.343h-1.54l-.342.343c-.858 4.277-3.595 6.675-8.385 6.675-5.99 0-10.27-4.45-10.27-12.325s4.45-12.32 10.267-12.32c4.793 0 7.533 2.397 8.388 6.332l.342.343h1.54l.343-.343c-.855-5.475-5.135-8.385-10.783-8.385-6.675 0-12.665 4.793-12.665 14.205 0 9.755 5.99 14.545 12.665 14.545m-17.455-.855V2.576l-.342-.342h-2.74l-.34.342-10.27 24.13h-.343l-10.61-24.13-.342-.342h-2.738l-.342.342v27.04l.342.343h1.54l.343-.343V6.684h.342l9.925 22.932.343.343h2.055l.342-.343 9.925-22.932h.513v22.932l.342.343h1.54zm-33.37 0v-1.2l-.342-.34h-14.718l-.342-.342V17.466l.342-.342h13.86l.343-.343v-1.37l-.343-.342h-13.86l-.342-.343V4.63l.342-.34h14.718l.342-.343v-1.37l-.342-.342h-17.115l-.343.342v27.04l.343.343h17.115z"/></g><defs><clipPath id="a"><path fill="#fff" d="M.94.412h180v31.176H.94z"/></clipPath></defs></svg>
